X: 3
T:Vals frn Jeppo - "Viktors vals"
S:(efter Viktor Andersson)
N:Efter Viktor Andersson, Jeppo
A:Jeppo (sterbotten)
O:Finland
Z:Lennart Sohlman
M:3/4
L:1/8
Q:1/4=170
K:Em
(cB)|A2 c2 e2|g4 (fg)|a2 f2 d2|(e=f) (ed) (cB)|\
(AB) (cd) (ef)|g4 (fg)|a2 f2 d2|[1e4 (cB):|[2e4 e2|:\
a2 (ec) (eg)|f2 (ed) c2|B2 (AG) (AB)|(AB) (cd) e2|\
a2 (ec) (eg)|f2 (ed) c2|B2 (AG) (AB)|[1A4 e2:|[2A6|]
